src/renderer/assets/icon/volume-default-icon.svg

<svg width="16px" height="17px" viewBox="0 0 16 17" version="1.1" xmlns="http://www.w3.org/2000/svg" xmlns:xlink="http://www.w3.org/1999/xlink">
    <g id="Page-1" stroke="none" stroke-width="1" fill="none" fill-rule="evenodd">
        <g id="Artboard" transform="translate(-122.000000, -467.000000)">
            <rect x="0" y="0" width="387" height="538"></rect>
            <g id="volume" transform="translate(121.000000, 467.000000)" fill="#FFFFFF" fill-opacity="0.7">
                <g id="Group-2" transform="translate(1.000000, 0.000000)">
                    <path d="M9.75190303,4.08562073e-14 C9.512,4.08562073e-14 9.30424242,0.0877090909 9.12901818,0.263078788 L4.51941818,4.87272727 L0.89270303,4.87272727 C0.652606061,4.87272727 0.444945455,4.96043636 0.269672727,5.13570909 C0.0942545455,5.31127273 0.00659393939,5.51878788 0.00659393939,5.75873939 L0.00659393939,11.0743273 C0.00659393939,11.3142303 0.0943030303,11.5219394 0.269672727,11.6972121 C0.445139394,11.8725818 0.652751515,11.9603879 0.89270303,11.9603879 L4.51941818,11.9603879 L9.12901818,16.5701818 C9.30419394,16.7452121 9.51195152,16.8330182 9.75190303,16.8330182 C9.99185455,16.8330182 10.1995152,16.7452121 10.3751273,16.5701818 C10.550303,16.3948121 10.6379636,16.187103 10.6379636,15.947297 L10.6379636,0.886109091 C10.6379636,0.646206061 10.550303,0.438351515 10.3751273,0.263030303 C10.1993697,0.0877090909 9.99180606,4.08562073e-14 9.75190303,4.08562073e-14 Z" id="Path"></path>
                    <path d="M15.3650424,6.45027879 C14.9728,5.84121212 14.4541091,5.41202424 13.8077091,5.16295758 C13.7154424,5.11689697 13.6002909,5.0937697 13.4619152,5.0937697 C13.2219636,5.0937697 13.0142545,5.17934545 12.8390303,5.34986667 C12.6638061,5.52058182 12.5758545,5.73061818 12.5758545,5.97973333 C12.5758545,6.17352727 12.6312727,6.33735758 12.7421091,6.47117576 C12.8529455,6.60509091 12.9863273,6.72048485 13.1436121,6.81730909 C13.3002667,6.9142303 13.4572606,7.02041212 13.6142061,7.13570909 C13.7711515,7.25110303 13.9048727,7.41488485 14.0157091,7.62710303 C14.1262061,7.83932121 14.1819636,8.10230303 14.1819636,8.41614545 C14.1819636,8.7302303 14.1262545,8.99306667 14.0157091,9.2054303 C13.9048727,9.41784242 13.7711515,9.5814303 13.6142061,9.69711515 C13.4572606,9.81221818 13.3002667,9.9184 13.1436121,10.0153212 C12.9863273,10.1120485 12.8529455,10.2276848 12.7421091,10.3614545 C12.6312727,10.4953697 12.5758545,10.659103 12.5758545,10.8529455 C12.5758545,11.102303 12.6637576,11.3118545 12.8390303,11.4827636 C13.0142061,11.6533333 13.2219152,11.7387636 13.4619152,11.7387636 C13.6002909,11.7387636 13.7154424,11.7156848 13.8077091,11.6697212 C14.4541091,11.4113939 14.9728,10.9798303 15.3650424,10.3757091 C15.7576242,9.77090909 15.9537455,9.11835152 15.9537455,8.41682424 C15.9537455,7.71510303 15.7571394,7.05992727 15.3650424,6.45027879 Z" id="Path"></path>
                </g>
            </g>
        </g>
    </g>
</svg>

<svg width="16" height="17" xmlns="http://www.w3.org/2000/svg">
    <g fill="none" fill-rule="evenodd">
        <path d="M-122-467h387V71h-387z"/>
        <path d="M9.752 0a.851.851 0 00-.623.263l-4.61 4.61H.893a.852.852 0 00-.623.263.852.852 0 00-.263.623v5.315c0 .24.087.448.263.623a.852.852 0 00.623.263h3.626l4.61 4.61a.852.852 0 00.623.263c.24 0 .448-.088.623-.263a.852.852 0 00.263-.623V.887a.852.852 0 00-.263-.624A.853.853 0 009.752 0zm5.613 6.45a3.179 3.179 0 00-1.557-1.287.77.77 0 00-.346-.07.863.863 0 00-.623.257.845.845 0 00-.263.63c0 .194.055.357.166.491.11.134.244.25.402.346.156.097.313.203.47.319.157.115.29.279.402.491.11.212.166.475.166.79 0 .313-.056.576-.166.788a1.4 1.4 0 01-.402.492 7.222 7.222 0 01-.47.318 1.629 1.629 0 00-.402.346.745.745 0 00-.166.492c0 .25.088.459.263.63.175.17.383.256.623.256a.772.772 0 00.346-.07 3.27 3.27 0 001.557-1.293 3.569 3.569 0 000-3.925z" fill="#FFF" fill-opacity=".7"/>
    </g>
</svg>
